src/assets/img/icons/person.svg

<svg width="44" height="52" viewBox="0 0 44 52" fill="none" xmlns="http://www.w3.org/2000/svg">
<g clip-path="url(#clip0_4_596)">
<path d="M21.819 28H22.17C23.5726 28.0269 24.9642 27.747 26.2473 27.1797C27.5304 26.6125 28.674 25.7716 29.598 24.716C33.663 20.047 32.979 12.041 32.924 11.275C32.624 5.54099 29.975 2.79699 27.784 1.50999C26.056 0.52578 24.1026 0.00557808 22.114 -1.22914e-05H21.937C19.9481 -0.00579282 17.9915 0.502654 16.257 1.47599C14.04 2.75599 11.35 5.49999 11.084 11.29C11.01 12.045 10.345 20.058 14.41 24.731C15.3342 25.7803 16.4756 26.6161 17.7549 27.1806C19.0342 27.745 20.4209 28.0246 21.819 28V28ZM13.907 11.546V11.46C14.265 3.74499 19.627 2.91799 21.926 2.91799H22.052C24.897 2.98199 29.731 4.16699 30.06 11.464C30.0541 11.4927 30.0541 11.5223 30.06 11.551C30.06 11.626 30.799 18.945 27.473 22.796C26.7926 23.5536 25.954 24.1524 25.0165 24.5499C24.079 24.9473 23.0656 25.1338 22.048 25.096H21.941C20.9241 25.1415 19.9099 24.9585 18.9729 24.5605C18.036 24.1625 17.2002 23.5595 16.527 22.796C13.179 18.96 13.896 11.611 13.907 11.546Z" fill="black"/>
<path d="M43.9999 41.372V41.072C43.9359 38.951 43.7999 33.988 39.1489 32.402L39.0399 32.368C35.8769 31.498 32.8726 30.1299 30.1399 28.315C29.9846 28.2009 29.8081 28.1189 29.6207 28.074C29.4332 28.029 29.2387 28.0219 29.0485 28.0531C28.8584 28.0844 28.6763 28.1533 28.5131 28.2558C28.35 28.3584 28.2089 28.4925 28.0982 28.6503C27.9876 28.8081 27.9096 28.9864 27.8688 29.1748C27.828 29.3632 27.8253 29.5578 27.8607 29.7472C27.8962 29.9367 27.9692 30.1171 28.0753 30.278C28.1815 30.4389 28.3187 30.5769 28.4789 30.684C31.4726 32.6922 34.7721 34.2018 38.2489 35.154C40.7439 36.045 41.0219 38.711 41.0969 41.17C41.0914 41.2589 41.0914 41.3481 41.0969 41.437C41.1163 42.5454 41.0411 43.6534 40.8719 44.749C39.1619 45.723 32.3569 49.133 22.0089 49.133C11.6609 49.133 4.85393 45.71 3.11093 44.725C2.93648 43.63 2.86117 42.5215 2.88593 41.413V41.146C2.96093 38.702 3.23893 36.033 5.73393 35.13C9.20889 34.1726 12.5076 32.6634 15.5039 30.66C15.6642 30.5529 15.8014 30.4149 15.9075 30.254C16.0137 30.0931 16.0866 29.9127 16.1221 29.7232C16.1576 29.5338 16.1548 29.3392 16.114 29.1508C16.0733 28.9624 15.9953 28.7841 15.8846 28.6263C15.774 28.4685 15.6329 28.3344 15.4697 28.2318C15.3065 28.1293 15.1245 28.0604 14.9343 28.0291C14.7441 27.9979 14.5496 28.005 14.3622 28.0499C14.1748 28.0949 13.9982 28.1769 13.8429 28.291C11.1236 30.1117 8.12945 31.4839 4.97493 32.355L4.86593 32.389C0.217927 33.987 0.0789271 38.946 -7.28583e-05 41.059C0.00544333 41.1479 0.00544333 41.2371 -7.28583e-05 41.326V41.36C-0.0556436 42.9959 0.12796 44.6312 0.544927 46.214C0.655372 46.4893 0.851795 46.7215 1.10493 46.876C1.42793 47.09 9.12693 52.001 22.0159 52.001C34.9049 52.001 42.5999 47.079 42.9259 46.876C43.1766 46.7148 43.3709 46.4796 43.4819 46.203C43.8848 44.6257 44.0592 42.9988 43.9999 41.372V41.372Z" fill="black"/>
</g>
<defs>
<clipPath id="clip0_4_596">
<rect width="44" height="52" fill="white"/>
</clipPath>
</defs>
</svg>

<svg width="44" height="52" fill="none" xmlns="http://www.w3.org/2000/svg"><g clip-path="url(#a)" fill="#000"><path d="M21.819 28h.351a9.627 9.627 0 0 0 7.428-3.284c4.065-4.669 3.381-12.675 3.326-13.441-.3-5.734-2.949-8.478-5.14-9.765A11.522 11.522 0 0 0 22.114 0h-.177a11.538 11.538 0 0 0-5.68 1.476C14.04 2.756 11.35 5.5 11.084 11.29c-.074.755-.739 8.768 3.326 13.441A9.647 9.647 0 0 0 21.819 28Zm-7.912-16.454v-.086c.358-7.715 5.72-8.542 8.019-8.542h.126c2.845.064 7.679 1.249 8.008 8.546a.216.216 0 0 0 0 .087c0 .075.739 7.394-2.587 11.245a6.946 6.946 0 0 1-5.425 2.3h-.107a6.813 6.813 0 0 1-5.414-2.3c-3.348-3.836-2.631-11.185-2.62-11.25Z"/><path d="M44 41.372v-.3c-.064-2.121-.2-7.084-4.851-8.67l-.11-.034a30.899 30.899 0 0 1-8.9-4.053 1.446 1.446 0 1 0-1.66 2.369 33.352 33.352 0 0 0 9.77 4.47c2.495.891 2.773 3.557 2.848 6.016a2.162 2.162 0 0 0 0 .267 19.468 19.468 0 0 1-.225 3.312c-1.71.974-8.515 4.384-18.863 4.384-10.348 0-17.155-3.423-18.898-4.408a18.435 18.435 0 0 1-.225-3.312v-.267c.075-2.444.353-5.113 2.848-6.016a33.665 33.665 0 0 0 9.77-4.47 1.445 1.445 0 0 0 .38-2.034 1.447 1.447 0 0 0-2.041-.335 30.561 30.561 0 0 1-8.868 4.064l-.11.034C.219 33.987.08 38.946 0 41.059c.005.089.005.178 0 .267v.034a16.814 16.814 0 0 0 .545 4.854c.11.275.307.508.56.662.323.214 8.022 5.125 20.91 5.125 12.89 0 20.585-4.922 20.91-5.125.252-.161.446-.396.557-.673.403-1.577.577-3.204.518-4.831Z"/></g><defs><clipPath id="a"><path fill="#fff" d="M0 0h44v52H0z"/></clipPath></defs></svg>
